X: 37605
T: Smokey Lum, The
R: reel
M: 4/4
K: Bminor
|:dc|BFDB, G,B,DF|EAcB AEdc|B>F F/F/F Bdfd|ca^ga ecAc|
d2fd cAEA|GABd cAdc|B>F F/F/F DFB,F|EAdc B2:|
|:de|faed cAEA|GABd cAde|fd(3f^ga eaca|bafd cAdc|
B2FB c2Ac|dBfd cAdc|BFDF EAcf|edcA Bc:|

